X: 2
T: The Belles Of Tipperary
R: reel
M: 4/4
L: 1/8
K: Dmaj
D3E FA A2|defe dBBd|BdAd Bb b2|afde fe e2|DCDE FA A2|defe dBBd|BdAd Bb b2|afde fd d2:||:a3b afed|gfed fd d2|BdAd Bb b2|afde fe e2|a3b afed|gfed fd d2|BdAd Bb b2|afde fd d2:||


Tune 769	Setting 13889

